_site/images/features-page/icon-usd.svg

<svg fill="none" height="30" viewBox="0 0 30 30" width="30" xmlns="http://www.w3.org/2000/svg"><rect fill="#00b6ab" height="30" rx="7" width="30"/><path clip-rule="evenodd" d="m15 5c-5.52285 0-10 4.47715-10 10 0 5.5229 4.47715 10 10 10 5.5228 0 10-4.4771 10-10 0-2.6522-1.0536-5.1957-2.9289-7.07107-1.8754-1.87536-4.4189-2.92893-7.0711-2.92893zm2.7271 7.2726c.5021 0 .9091-.407.9091-.9091s-.407-.9091-.9091-.9091h-1.8182v-.90908c0-.50208-.407-.90909-.9091-.90909-.502 0-.9091.40701-.9091.90909v.90908c-1.5062 0-2.7272 1.2211-2.7272 2.7273s1.221 2.7273 2.7272 2.7273h1.8182c.5021 0 .9091.407.9091.909 0 .5021-.407.9091-.9091.9091h-3.6363c-.5021 0-.9091.4071-.9091.9091 0 .5021.407.9091.9091.9091h1.8181v.9091c0 .5021.4071.9091.9091.9091.5021 0 .9091-.407.9091-.9091v-.9091c1.5062 0 2.7273-1.221 2.7273-2.7273 0-1.5062-1.2211-2.7272-2.7273-2.7272h-1.8182c-.502 0-.9091-.407-.9091-.9091s.4071-.9091.9091-.9091zm-10.90886 2.7276c0 4.5187 3.66316 8.1818 8.18186 8.1818 4.5186 0 8.1818-3.6631 8.1818-8.1818s-3.6632-8.18184-8.1818-8.18184c-4.5187 0-8.18186 3.66314-8.18186 8.18184z" fill="#fff" fill-rule="evenodd"/></svg>

<svg width="30" height="30" viewBox="0 0 30 30" fill="none" xmlns="http://www.w3.org/2000/svg">
<rect width="30" height="30" rx="7" fill="#00B6AB"/>
<path fill-rule="evenodd" clip-rule="evenodd" d="M15 5C9.47715 5 5 9.47715 5 15C5 20.5229 9.47715 25 15 25C20.5228 25 25 20.5229 25 15C25 12.3478 23.9464 9.8043 22.0711 7.92893C20.1957 6.05357 17.6522 5 15 5ZM17.7271 12.2726C18.2292 12.2726 18.6362 11.8656 18.6362 11.3635C18.6362 10.8614 18.2292 10.4544 17.7271 10.4544H15.9089V9.54532C15.9089 9.04324 15.5019 8.63623 14.9998 8.63623C14.4978 8.63623 14.0907 9.04324 14.0907 9.54532V10.4544C12.5845 10.4544 11.3635 11.6755 11.3635 13.1817C11.3635 14.6879 12.5845 15.909 14.0907 15.909H15.9089C16.411 15.909 16.818 16.316 16.818 16.818C16.818 17.3201 16.411 17.7271 15.9089 17.7271H12.2726C11.7705 17.7271 11.3635 18.1342 11.3635 18.6362C11.3635 19.1383 11.7705 19.5453 12.2726 19.5453H14.0907V20.4544C14.0907 20.9565 14.4978 21.3635 14.9998 21.3635C15.5019 21.3635 15.9089 20.9565 15.9089 20.4544V19.5453C17.4151 19.5453 18.6362 18.3243 18.6362 16.818C18.6362 15.3118 17.4151 14.0908 15.9089 14.0908H14.0907C13.5887 14.0908 13.1816 13.6838 13.1816 13.1817C13.1816 12.6796 13.5887 12.2726 14.0907 12.2726H17.7271ZM6.81824 15.0002C6.81824 19.5189 10.4814 23.182 15.0001 23.182C19.5187 23.182 23.1819 19.5189 23.1819 15.0002C23.1819 10.4815 19.5187 6.81836 15.0001 6.81836C10.4814 6.81836 6.81824 10.4815 6.81824 15.0002Z" fill="white"/>
</svg>
